X: 12331
T: The Cock Laird
%R: air, waltz, jig
B: James Oswald "The Caledonian Pocket Companion" v.1 b.1 p.33 #1
Z: 2020 John Chambers <jc:trillian.mit.edu>
M: 3/4
L: 1/8
K: Em
"_Slow"e2 |\
(d^c) B2 e2 | (d2 B2) ^c2 | d3 ed^c | B4 (e^d) |\
e3 f (e/f/g) | G3 ABc | d3 edc | B4 :: F2 |\
G3 ABc | {B}TA3 G F2 |
G2 (F<E) (e<^d) | {d2}e4 (EF) |\
G3 ABc | {B}A3 G F2 | GA B2 ^D2 | E4 :: B2 |\
e6 | d6 | c3 B (A/B/c) | {c}TB3 A G2 |\
g4 f2 |
{f}e3 d B2 | TA2 G2 A2 | B4 :: F2 |\
G6 | A6 | B2 e2 ^d2 | {d2}e4 (EF) |\
G3 A B2 | A3 B {AB}c2 | {c}B2 A2 B2 | E4 :|
P: Gig
M: 6/8
"_Brisk"e |\
(dB)A G2e | (dB)A G2A | (Be)d TB2A | (GA)F E2 :: F |\
G2A BAG | (dB)G (AF)D | G2A (Bg)f | Te2d B2g |\
(dB)g TB2A | GAF E2 :|


